X:1
T:Lord Redhaven's
T:Lord Redhaven's
T:Alexander Walker
C:Alexander Walker
L:1/8
M:2/2
K:A
V:1 treble 
V:1
 C | [A,E]AcB A2 EC | A,AcA BB,B,C | [A,E]AcA defg | aefd c<AA :| e | faef ceBc | AcBA BFFe | %8
 faec ABcB | AFED CA,A,d | cAec dBbd | cAec fBBc | EAcA defg | aefd cA A2 || %14

